material/.icons/material/align-horizontal-center.svg

<svg xmlns="http://www.w3.org/2000/svg" viewBox="0 0 24 24"><path d="M20 19h-7v3h-2v-3H4v-6h7v-2H7V5h4V2h2v3h4v6h-4v2h7v6z"/></svg>

<?xml version="1.0" encoding="UTF-8"?><!DOCTYPE svg PUBLIC "-//W3C//DTD SVG 1.1//EN" "http://www.w3.org/Graphics/SVG/1.1/DTD/svg11.dtd"><svg xmlns="http://www.w3.org/2000/svg" xmlns:xlink="http://www.w3.org/1999/xlink" version="1.1" id="mdi-align-horizontal-center" width="24" height="24" viewBox="0 0 24 24"><path d="M20 19H13V22H11V19H4V13H11V11H7V5H11V2H13V5H17V11H13V13H20V19Z" /></svg>
